X: 33638
T: Rambler, The
R: jig
M: 6/8
K: Dmajor
|:D3 D2G|EDD D2d|edB GAB|A3 AGE|
D3 D2G|E3 D2d|edB GAB|A3 G2:|
B|dBG GBd|g3 ege|ded edB|A3 ABc|
dBG GBd|g3 age|dB/c/d edB|AGF G2:|

